arcticons-light/symbolic/apps/firefox-beta-symbolic.svg

<?xml version="1.0" encoding="UTF-8" standalone="no"?>
<svg
   viewBox="0 0 48 48"
   version="1.1"
   id="svg2"
   sodipodi:docname="firefox-beta.svg"
   xmlns:inkscape="http://www.inkscape.org/namespaces/inkscape"
   xmlns:sodipodi="http://sodipodi.sourceforge.net/DTD/sodipodi-0.dtd"
   xmlns="http://www.w3.org/2000/svg"
   xmlns:svg="http://www.w3.org/2000/svg">
  <sodipodi:namedview
     id="namedview2"
     pagecolor="#ffffff"
     bordercolor="#666666"
     borderopacity="1.0"
     inkscape:showpageshadow="2"
     inkscape:pageopacity="0.0"
     inkscape:pagecheckerboard="0"
     inkscape:deskcolor="#d1d1d1" />
  <defs
     id="defs1">
    <style
       id="style1">.a,.b{fill:none;stroke:#000;stroke-linecap:round;stroke-linejoin:round;}.b{stroke-width:2px;}</style>
  </defs>
  <path
     style="color:#000000;fill:#000000;stroke-linecap:round;stroke-linejoin:round;-inkscape-stroke:none"
     d="m 30.867187,1.2382812 a 0.50005,0.50005 0 0 0 -0.404296,0.054687 C 26.121873,3.9752459 23.283815,8.5337204 22.796875,13.613281 a 0.50005,0.50005 0 0 0 0.498047,0.548828 H 24 c 3.263852,-5.7e-5 6.257084,1.508693 8.308594,3.955078 -1.261743,-0.531702 -2.599495,-0.85379 -3.984375,-0.6875 a 0.50005,0.50005 0 0 0 -0.179688,0.935547 c 2.722727,1.477432 4.401502,4.340013 4.361328,7.4375 a 0.50005,0.50005 0 0 0 0,0.0059 c 0,3.423068 -1.419515,5.438175 -3.214843,6.675781 -1.795328,1.237606 -4.009913,1.652344 -5.458985,1.652344 -4.022452,0 -6.221859,-1.863017 -7.498047,-3.746094 -1.198637,-1.768648 -1.490342,-3.409487 -1.52539,-3.617188 0.02241,-0.07042 0.234037,-0.781658 1.136719,-1.61914 0.946194,-0.877852 2.572065,-1.783203 5.414062,-1.783203 0.998221,0 1.734258,-0.735793 2.251953,-1.38086 0.517695,-0.645067 0.835938,-1.285156 0.835938,-1.285156 a 0.50005,0.50005 0 0 0 -0.234375,-0.675781 c 0,0 -1.734625,-0.815301 -4.189454,-2.230469 l -0.002,-0.002 c -0.944056,-0.585874 -1.790877,-1.315228 -2.507812,-2.164062 a 0.50005,0.50005 0 0 0 -0.02344,-0.02734 C 17.372797,15.485056 17.240895,15.38052 17.111328,15.273438 16.928751,14.49121 16.821506,13.692207 16.820312,12.888672 v -0.002 c 0,-6.49e-4 10e-7,-0.0013 0,-0.002 0.0052,-0.808583 0.08923,-1.614188 0.251954,-2.40625 A 0.50005,0.50005 0 0 0 16.349609,9.9335938 C 14.599294,10.853378 13.051591,12.093259 11.6875,13.519531 11.282951,12.046947 11.074032,10.525728 11.169922,8.9980469 A 0.50005,0.50005 0 0 0 10.400391,8.546875 C 5.1453591,11.916319 1.9753424,17.740085 2,23.982422 2,33.443531 6.1403972,39.209216 10.955078,42.53125 15.769759,45.853284 21.203589,46.783203 24,46.783203 a 0.50005,0.50005 0 0 0 0.0039,-0.002 v 0.002 c 3.538705,-0.02586 7.018348,-0.901783 10.148438,-2.552734 A 0.5,0.5 0 0 0 34.361328,43.554687 0.5,0.5 0 0 0 33.6875,43.345703 c -2.987345,1.575662 -6.310216,2.412195 -9.6875,2.4375 -8.94e-4,0 -0.003,0 -0.0039,0 C 21.426493,45.782573 16.115898,44.87769 11.523438,41.708984 6.9293779,38.539175 3,33.154895 3,23.982422 a 0.50005,0.50005 0 0 0 0,-0.002 C 2.9773627,18.40154 5.7179823,13.245864 10.207031,10 c 0.01449,1.555932 0.208615,3.106596 0.705078,4.585938 a 0.50005,0.50005 0 0 0 0.47461,0.339843 h 0.07226 a 0.50005,0.50005 0 0 0 0.376954,-0.169922 c 1.183069,-1.356736 2.603757,-2.466443 4.142578,-3.392578 -0.06142,0.506251 -0.155056,1.00898 -0.158203,1.519532 a 0.50005,0.50005 0 0 0 0,0.0039 c 0.001,0.929957 0.113081,1.854952 0.335937,2.757812 a 0.50005,0.50005 0 0 0 0.185547,0.28125 c 0.153494,0.114914 0.297764,0.241638 0.43164,0.378906 L 16.75,16.277344 c 0.785265,0.929734 1.711883,1.729645 2.746094,2.371093 a 0.50005,0.50005 0 0 0 0.01367,0.0098 c 2.20722,1.27353 3.420052,1.839667 3.77539,2.009766 -0.1203,0.210712 -0.17584,0.349805 -0.453125,0.695312 -0.440903,0.549382 -1.025278,1.007813 -1.472656,1.007813 -3.058597,0 -4.973597,1.011535 -6.09375,2.050781 -1.120153,1.039246 -1.466797,2.136719 -1.466797,2.136719 a 0.50005,0.50005 0 0 0 -0.01563,0.220703 c 0,0 0.311372,2.089456 1.722656,4.171875 1.411285,2.082419 3.987533,4.185547 8.326172,4.185547 1.632526,0 4.006426,-0.435009 6.027344,-1.828125 2.019384,-1.392059 3.644018,-3.789164 3.646484,-7.492188 v -0.0039 c 0.03579,-2.852066 -1.28157,-5.476146 -3.429687,-7.255859 1.304852,0.155688 2.569725,0.544956 3.603515,1.392578 a 0.50005,0.50005 0 0 0 0.75586,-0.628907 C 32.338448,15.52129 28.339401,13.162033 24,13.162109 h -0.08984 c 0.581511,-4.3651253 2.998187,-8.2467043 6.66211,-10.6914059 0.947296,1.9030285 2.107883,3.6918995 3.515625,5.2871094 2.61339,2.9607515 5.936907,6.5070725 7.265625,10.0234375 A 0.50005,0.50005 0 0 0 42.3125,17.515625 c -0.0053,-0.02973 -0.02192,-0.05623 -0.02734,-0.08594 l 0.0039,-0.002 c -0.0037,-0.0098 -0.0099,-0.01949 -0.01367,-0.0293 -0.290351,-1.57764 -0.893696,-3.065873 -1.478516,-4.55664 0.438042,0.436613 0.893222,0.872951 1.416016,1.648437 C 43.596984,16.543332 45,19.852961 45,24.914062 c -0.04096,2.94058 -0.695349,5.840723 -1.921875,8.513672 a 0.5,0.5 0 0 0 0.246094,0.664063 0.5,0.5 0 0 0 0.662109,-0.246094 C 45.272064,31.043721 45.9582,28.00253 46,24.919922 a 0.50005,0.50005 0 0 0 0,-0.0059 C 46,19.667174 44.529569,16.137735 43.041016,13.929688 41.552462,11.72164 40.007812,10.806641 40.007812,10.806641 a 0.50005,0.50005 0 0 0 -0.703125,0.648437 c 0.261195,0.539848 0.332993,1.146316 0.552735,1.703125 C 38.292283,10.964331 36.431528,8.9011608 34.837891,7.0957031 33.356569,5.4171147 32.124083,3.5347498 31.177734,1.5058594 A 0.50005,0.50005 0 0 0 30.867187,1.2382812 Z"
     id="path1" />
  <path
     style="color:#000000;fill:#000000;stroke-linecap:round;stroke-linejoin:round;-inkscape-stroke:none"
     d="m 36.072266,33.5 a 1.0001,1.0001 0 0 0 -1,1 v 8 a 1.0001,1.0001 0 0 0 1,1 h 3.300781 c 0.916665,0 1.729488,-0.379756 2.246094,-0.960938 0.516605,-0.581181 0.753906,-1.316841 0.753906,-2.039062 0,-0.708475 -0.243926,-1.424161 -0.740235,-2 0.496309,-0.575839 0.740235,-1.291525 0.740235,-2 0,-0.722221 -0.237301,-1.457881 -0.753906,-2.039063 C 41.102535,33.879756 40.289712,33.5 39.373047,33.5 Z m 1,2 h 2.300781 c 0.416666,0 0.601893,0.120245 0.751953,0.289062 0.15006,0.168818 0.248047,0.43316 0.248047,0.710938 0,0.277778 -0.09799,0.54212 -0.248047,0.710937 C 39.97494,37.379755 39.789713,37.5 39.373047,37.5 a 1.0001,1.0001 0 0 0 -0.986328,1 1.0001,1.0001 0 0 0 0.986328,1 c 0.416666,0 0.601893,0.120245 0.751953,0.289062 0.15006,0.168818 0.248047,0.43316 0.248047,0.710938 0,0.277778 -0.09799,0.54212 -0.248047,0.710937 C 39.97494,41.379755 39.789713,41.5 39.373047,41.5 h -2.300781 z"
     id="path2" />
  <path
     style="color:#000000;fill:#000000;stroke-linecap:round;stroke-linejoin:round;-inkscape-stroke:none"
     d="m 36.072266,37.5 a 1,1 0 0 0 -1,1 1,1 0 0 0 1,1 h 3.300781 a 1,1 0 0 0 1,-1 1,1 0 0 0 -1,-1 z"
     id="line2" />
  <path
     style="color:#000000;fill:#000000;stroke-linecap:round;stroke-linejoin:round;-inkscape-stroke:none"
     d="M 38.5,31 C 34.363791,31 31,34.363791 31,38.5 31,42.636209 34.363791,46 38.5,46 42.636209,46 46,42.636209 46,38.5 46,34.363791 42.636209,31 38.5,31 Z m 0,1 C 42.09577,32 45,34.90423 45,38.5 45,42.09577 42.09577,45 38.5,45 34.90423,45 32,42.09577 32,38.5 32,34.90423 34.90423,32 38.5,32 Z"
     id="circle2" />
</svg>

<?xml version="1.0" encoding="UTF-8"?>
<svg id="svg14" version="1.1" viewBox="0 0 48 48" xmlns="http://www.w3.org/2000/svg">
 <defs id="defs4">
  <style id="style2">.a,.b{fill:none;stroke:#000;stroke-linecap:round;stroke-linejoin:round;}.b{stroke-width:2px;}</style>
 </defs>
 <path id="path6" d="m30.867 1.2383a0.50005 0.50005 0 0 0-0.4043 0.054687c-4.341 2.6823-7.1791 7.2408-7.666 12.32a0.50005 0.50005 0 0 0 0.49805 0.54883h0.70508c3.2639-5.7e-5 6.2571 1.5087 8.3086 3.9551-1.2617-0.5317-2.5995-0.85379-3.9844-0.6875a0.50005 0.50005 0 0 0-0.17969 0.93555c2.7227 1.4774 4.4015 4.34 4.3613 7.4375a0.50005 0.50005 0 0 0 0 0.0059c0 3.4231-1.4195 5.4382-3.2148 6.6758s-4.0099 1.6523-5.459 1.6523c-4.0225 0-6.2219-1.863-7.498-3.7461-1.1986-1.7686-1.4903-3.4095-1.5254-3.6172 0.02241-0.07042 0.23404-0.78166 1.1367-1.6191 0.94619-0.87785 2.5721-1.7832 5.4141-1.7832 0.99822 0 1.7343-0.73579 2.252-1.3809s0.83594-1.2852 0.83594-1.2852a0.50005 0.50005 0 0 0-0.23438-0.67578s-1.7346-0.8153-4.1895-2.2305l-2e-3 -2e-3c-0.94406-0.58587-1.7909-1.3152-2.5078-2.1641a0.50005 0.50005 0 0 0-0.02344-0.02734c-0.11739-0.12041-0.24929-0.22495-0.37886-0.33203-0.18258-0.78223-0.28982-1.5812-0.29102-2.3848v-2e-3c0-6.49e-4 1e-6 -0.0013 0-2e-3 0.0052-0.80858 0.08923-1.6142 0.25195-2.4062a0.50005 0.50005 0 0 0-0.72266-0.54483c-1.7503 0.91978-3.298 2.1597-4.6621 3.5859-0.40455-1.4726-0.61347-2.9938-0.51758-4.5215a0.50005 0.50005 0 0 0-0.76953-0.45117c-5.255 3.3694-8.425 9.1932-8.4004 15.436 0 9.4611 4.1404 15.227 8.9551 18.549 4.8147 3.322 10.249 4.252 13.045 4.252a0.50005 0.50005 0 0 0 0.0039-2e-3v2e-3c3.5387-0.02586 7.0183-0.90178 10.148-2.5527a0.5 0.5 0 0 0 0.20899-0.67578 0.5 0.5 0 0 0-0.67383-0.20898c-2.9873 1.5757-6.3102 2.4122-9.6875 2.4375h-0.0039c-2.5696-6.3e-4 -7.8802-0.90551-12.473-4.0742-4.5941-3.1698-8.5234-8.5541-8.5234-17.727a0.50005 0.50005 0 0 0 0-2e-3c-0.022637-5.5789 2.718-10.735 7.207-13.98 0.01449 1.5559 0.20862 3.1066 0.70508 4.5859a0.50005 0.50005 0 0 0 0.47461 0.33984h0.07226a0.50005 0.50005 0 0 0 0.37695-0.16992c1.1831-1.3567 2.6038-2.4664 4.1426-3.3926-0.06142 0.50625-0.15506 1.009-0.1582 1.5195a0.50005 0.50005 0 0 0 0 0.0039c1e-3 0.92996 0.11308 1.855 0.33594 2.7578a0.50005 0.50005 0 0 0 0.18555 0.28125c0.15349 0.11491 0.29776 0.24164 0.43164 0.37891l-0.023432-0.027337c0.78526 0.92973 1.7119 1.7296 2.7461 2.3711a0.50005 0.50005 0 0 0 0.01367 0.0098c2.2072 1.2735 3.4201 1.8397 3.7754 2.0098-0.1203 0.21071-0.17584 0.3498-0.45312 0.69531-0.4409 0.54938-1.0253 1.0078-1.4727 1.0078-3.0586 0-4.9736 1.0115-6.0938 2.0508s-1.4668 2.1367-1.4668 2.1367a0.50005 0.50005 0 0 0-0.01563 0.2207s0.31137 2.0895 1.7227 4.1719c1.4113 2.0824 3.9875 4.1855 8.3262 4.1855 1.6325 0 4.0064-0.43501 6.0273-1.8281 2.0194-1.3921 3.644-3.7892 3.6465-7.4922v-0.0039c0.03579-2.8521-1.2816-5.4761-3.4297-7.2559 1.3049 0.15569 2.5697 0.54496 3.6035 1.3926a0.50005 0.50005 0 0 0 0.75586-0.62891c-2.0971-3.7991-6.0961-6.1583-10.436-6.1582h-0.08984c0.58151-4.3651 2.9982-8.2467 6.6621-10.691 0.9473 1.903 2.1079 3.6919 3.5156 5.2871 2.6134 2.9608 5.9369 6.5071 7.2656 10.023a0.50005 0.50005 0 0 0 0.95898-0.26562c-0.0053-0.02973-0.02192-0.05623-0.02734-0.08594l0.0039-2e-3c-0.0037-0.0098-0.0099-0.01949-0.01367-0.0293-0.29035-1.5776-0.8937-3.0659-1.4785-4.5566 0.43804 0.43661 0.89322 0.87295 1.416 1.6484 1.3841 2.0532 2.7871 5.3628 2.7871 10.424-0.04096 2.9406-0.69535 5.8407-1.9219 8.5137a0.5 0.5 0 0 0 0.24609 0.66406 0.5 0.5 0 0 0 0.66211-0.24609c1.2857-2.802 1.9719-5.8432 2.0137-8.9258a0.50005 0.50005 0 0 0 0-0.0059c0-5.2468-1.4704-8.7763-2.959-10.984-1.4886-2.208-3.0332-3.123-3.0332-3.123a0.50005 0.50005 0 0 0-0.70312 0.64844c0.2612 0.53985 0.33299 1.1463 0.55274 1.7031-1.5651-2.1939-3.4259-4.257-5.0195-6.0625-1.4813-1.6786-2.7138-3.561-3.6602-5.5898a0.50005 0.50005 0 0 0-0.31055-0.26758z" color="#000000" stroke-linecap="round" stroke-linejoin="round" style="-inkscape-stroke:none"/>
 <path id="path8" d="m36.072 33.5a1.0001 1.0001 0 0 0-1 1v8a1.0001 1.0001 0 0 0 1 1h3.3008c0.91666 0 1.7295-0.37976 2.2461-0.96094 0.5166-0.58118 0.75391-1.3168 0.75391-2.0391 0-0.70848-0.24393-1.4242-0.74024-2 0.49631-0.57584 0.74024-1.2915 0.74024-2 0-0.72222-0.2373-1.4579-0.75391-2.0391-0.51661-0.58118-1.3294-0.96094-2.2461-0.96094zm1 2h2.3008c0.41667 0 0.60189 0.12024 0.75195 0.28906 0.15006 0.16882 0.24805 0.43316 0.24805 0.71094s-0.09799 0.54212-0.24805 0.71094c-0.15006 0.16882-0.33529 0.28906-0.75195 0.28906a1.0001 1.0001 0 0 0-0.98633 1 1.0001 1.0001 0 0 0 0.98633 1c0.41667 0 0.60189 0.12024 0.75195 0.28906 0.15006 0.16882 0.24805 0.43316 0.24805 0.71094s-0.09799 0.54212-0.24805 0.71094c-0.15006 0.16882-0.33529 0.28906-0.75195 0.28906h-2.3008z" color="#000000" stroke-linecap="round" stroke-linejoin="round" style="-inkscape-stroke:none"/>
 <path id="line10" d="m36.072 37.5a1 1 0 0 0-1 1 1 1 0 0 0 1 1h3.3008a1 1 0 0 0 1-1 1 1 0 0 0-1-1z" color="#000000" stroke-linecap="round" stroke-linejoin="round" style="-inkscape-stroke:none"/>
 <path id="circle12" d="m38.5 31c-4.1362 0-7.5 3.3638-7.5 7.5s3.3638 7.5 7.5 7.5 7.5-3.3638 7.5-7.5-3.3638-7.5-7.5-7.5zm0 1c3.5958 0 6.5 2.9042 6.5 6.5s-2.9042 6.5-6.5 6.5-6.5-2.9042-6.5-6.5 2.9042-6.5 6.5-6.5z" color="#000000" stroke-linecap="round" stroke-linejoin="round" style="-inkscape-stroke:none"/>
</svg>
